content/sets-and-functions/images/snake.svg

<svg height="145.2pt" viewBox="0 0 161.2 145.2" width="161.2pt" xmlns="http://www.w3.org/2000/svg" xmlns:xlink="http://www.w3.org/1999/xlink"><clipPath id="a"><path d="m16 0h2v145.199219h-2zm0 0"/></clipPath><clipPath id="b"><path d="m0 128h161.199219v2h-161.199219zm0 0"/></clipPath><clipPath id="c"><path d="m153 125h8.199219v7h-8.199219zm0 0"/></clipPath><g clip-path="url(#a)"><path d="m192.001563 623.998438v144" fill="none" stroke="#000" stroke-linejoin="round" stroke-miterlimit="10" stroke-width="1.2" transform="matrix(1 0 0 -1 -175.4 768.6)"/></g><path d="m192.001563 767.998438-2.332032-7h4.660157zm0 0" fill-rule="evenodd" stroke="#000" stroke-linejoin="round" stroke-miterlimit="10" stroke-width="1.2" transform="matrix(1 0 0 -1 -175.4 768.6)"/><g clip-path="url(#b)"><path d="m176.001563 639.998438h159.999999" fill="none" stroke="#000" stroke-linejoin="round" stroke-miterlimit="10" stroke-width="1.2" transform="matrix(1 0 0 -1 -175.4 768.6)"/></g><path d="m160.601562 128.601562-7-2.332031v4.660157zm0 0" fill-rule="evenodd"/><g clip-path="url(#c)"><path d="m336.001562 639.998438-7 2.332031v-4.660156zm0 0" fill="none" stroke="#000" stroke-linejoin="round" stroke-miterlimit="10" stroke-width="1.2" transform="matrix(1 0 0 -1 -175.4 768.6)"/></g><g fill-rule="evenodd"><path d="m34.398438 112.601562c0-.996093-.804688-1.800781-1.796876-1.800781-.996093 0-1.800781.804688-1.800781 1.800781 0 .992188.804688 1.796876 1.800781 1.796876.992188 0 1.796876-.804688 1.796876-1.796876"/><path d="m34.398438 112.601562c0-.996093-.804688-1.800781-1.796876-1.800781-.996093 0-1.800781.804688-1.800781 1.800781 0 .992188.804688 1.796876 1.800781 1.796876.992188 0 1.796876-.804688 1.796876-1.796876"/><path d="m50.398438 112.601562c0-.996093-.804688-1.800781-1.796876-1.800781-.996093 0-1.800781.804688-1.800781 1.800781 0 .992188.804688 1.796876 1.800781 1.796876.992188 0 1.796876-.804688 1.796876-1.796876"/><path d="m34.398438 96.601562c0-.996093-.804688-1.800781-1.796876-1.800781-.996093 0-1.800781.804688-1.800781 1.800781 0 .992188.804688 1.796876 1.800781 1.796876.992188 0 1.796876-.804688 1.796876-1.796876"/><path d="m50.398438 96.601562c0-.996093-.804688-1.800781-1.796876-1.800781-.996093 0-1.800781.804688-1.800781 1.800781 0 .992188.804688 1.796876 1.800781 1.796876.992188 0 1.796876-.804688 1.796876-1.796876"/><path d="m66.398438 112.601562c0-.996093-.804688-1.800781-1.796876-1.800781-.996093 0-1.800781.804688-1.800781 1.800781 0 .992188.804688 1.796876 1.800781 1.796876.992188 0 1.796876-.804688 1.796876-1.796876"/><path d="m82.398438 112.601562c0-.996093-.804688-1.800781-1.796876-1.800781-.996093 0-1.800781.804688-1.800781 1.800781 0 .992188.804688 1.796876 1.800781 1.796876.992188 0 1.796876-.804688 1.796876-1.796876"/><path d="m82.398438 96.601562c0-.996093-.804688-1.800781-1.796876-1.800781-.996093 0-1.800781.804688-1.800781 1.800781 0 .992188.804688 1.796876 1.800781 1.796876.992188 0 1.796876-.804688 1.796876-1.796876"/><path d="m66.398438 96.601562c0-.996093-.804688-1.800781-1.796876-1.800781-.996093 0-1.800781.804688-1.800781 1.800781 0 .992188.804688 1.796876 1.800781 1.796876.992188 0 1.796876-.804688 1.796876-1.796876"/><path d="m66.398438 80.601562c0-.996093-.804688-1.800781-1.796876-1.800781-.996093 0-1.800781.804688-1.800781 1.800781 0 .992188.804688 1.796876 1.800781 1.796876.992188 0 1.796876-.804688 1.796876-1.796876"/><path d="m50.398438 80.601562c0-.996093-.804688-1.800781-1.796876-1.800781-.996093 0-1.800781.804688-1.800781 1.800781 0 .992188.804688 1.796876 1.800781 1.796876.992188 0 1.796876-.804688 1.796876-1.796876"/><path d="m34.398438 80.601562c0-.996093-.804688-1.800781-1.796876-1.800781-.996093 0-1.800781.804688-1.800781 1.800781 0 .992188.804688 1.796876 1.800781 1.796876.992188 0 1.796876-.804688 1.796876-1.796876"/><path d="m34.398438 64.601562c0-.996093-.804688-1.800781-1.796876-1.800781-.996093 0-1.800781.804688-1.800781 1.800781 0 .992188.804688 1.796876 1.800781 1.796876.992188 0 1.796876-.804688 1.796876-1.796876"/><path d="m34.398438 48.601562c0-.996093-.804688-1.800781-1.796876-1.800781-.996093 0-1.800781.804688-1.800781 1.800781 0 .992188.804688 1.796876 1.800781 1.796876.992188 0 1.796876-.804688 1.796876-1.796876"/><path d="m50.398438 48.601562c0-.996093-.804688-1.800781-1.796876-1.800781-.996093 0-1.800781.804688-1.800781 1.800781 0 .992188.804688 1.796876 1.800781 1.796876.992188 0 1.796876-.804688 1.796876-1.796876"/><path d="m50.398438 64.601562c0-.996093-.804688-1.800781-1.796876-1.800781-.996093 0-1.800781.804688-1.800781 1.800781 0 .992188.804688 1.796876 1.800781 1.796876.992188 0 1.796876-.804688 1.796876-1.796876"/><path d="m66.398438 64.601562c0-.996093-.804688-1.800781-1.796876-1.800781-.996093 0-1.800781.804688-1.800781 1.800781 0 .992188.804688 1.796876 1.800781 1.796876.992188 0 1.796876-.804688 1.796876-1.796876"/><path d="m82.398438 80.601562c0-.996093-.804688-1.800781-1.796876-1.800781-.996093 0-1.800781.804688-1.800781 1.800781 0 .992188.804688 1.796876 1.800781 1.796876.992188 0 1.796876-.804688 1.796876-1.796876"/><path d="m98.398438 96.601562c0-.996093-.804688-1.800781-1.796876-1.800781-.996093 0-1.800781.804688-1.800781 1.800781 0 .992188.804688 1.796876 1.800781 1.796876.992188 0 1.796876-.804688 1.796876-1.796876"/><path d="m98.398438 112.601562c0-.996093-.804688-1.800781-1.796876-1.800781-.996093 0-1.800781.804688-1.800781 1.800781 0 .992188.804688 1.796876 1.800781 1.796876.992188 0 1.796876-.804688 1.796876-1.796876"/><path d="m114.398438 112.601562c0-.996093-.804688-1.800781-1.796876-1.800781-.996093 0-1.800781.804688-1.800781 1.800781 0 .992188.804688 1.796876 1.800781 1.796876.992188 0 1.796876-.804688 1.796876-1.796876"/><path d="m34.398438 32.601562c0-.996093-.804688-1.800781-1.796876-1.800781-.996093 0-1.800781.804688-1.800781 1.800781 0 .992188.804688 1.796876 1.800781 1.796876.992188 0 1.796876-.804688 1.796876-1.796876"/></g><path d="m208.001563 655.998438h16l-16 16v16l32-32h15.999999l-47.999999 48v16l63.999999-64h16l-79.999999 80v16" fill="none" stroke="#2e8b57" stroke-linejoin="round" stroke-miterlimit="10" stroke-width="1.2" transform="matrix(1 0 0 -1 -175.4 768.6)"/><path d="m208.001563 751.998438-2.332032-7h4.660157zm0 0" style="fill-rule:evenodd;fill:#2e8b57;stroke-width:1.2;stroke-linejoin:round;stroke:#2e8b57;stroke-miterlimit:10" transform="matrix(1 0 0 -1 -175.4 768.6)"/></svg>

<?xml version="1.0" encoding="UTF-8"?>
<svg xmlns="http://www.w3.org/2000/svg" xmlns:xlink="http://www.w3.org/1999/xlink" width="161.2pt" height="145.2pt" viewBox="0 0 161.2 145.2" version="1.1">
<defs>
<clipPath id="clip1">
  <path d="M 16 0 L 18 0 L 18 145.199219 L 16 145.199219 Z M 16 0 "/>
</clipPath>
<clipPath id="clip2">
  <path d="M 0 128 L 161.199219 128 L 161.199219 130 L 0 130 Z M 0 128 "/>
</clipPath>
<clipPath id="clip3">
  <path d="M 153 125 L 161.199219 125 L 161.199219 132 L 153 132 Z M 153 125 "/>
</clipPath>
</defs>
<g id="surface1">
<g clip-path="url(#clip1)" clip-rule="nonzero">
<path style="fill:none;stroke-width:1.2;stroke-linecap:butt;stroke-linejoin:round;stroke:rgb(0%,0%,0%);stroke-opacity:1;stroke-miterlimit:10;" d="M 192.001563 623.998438 L 192.001563 767.998438 " transform="matrix(1,0,0,-1,-175.4,768.6)"/>
</g>
<path style="fill-rule:evenodd;fill:rgb(0%,0%,0%);fill-opacity:1;stroke-width:1.2;stroke-linecap:butt;stroke-linejoin:round;stroke:rgb(0%,0%,0%);stroke-opacity:1;stroke-miterlimit:10;" d="M 192.001563 767.998438 L 189.669531 760.998438 L 194.329688 760.998438 Z M 192.001563 767.998438 " transform="matrix(1,0,0,-1,-175.4,768.6)"/>
<g clip-path="url(#clip2)" clip-rule="nonzero">
<path style="fill:none;stroke-width:1.2;stroke-linecap:butt;stroke-linejoin:round;stroke:rgb(0%,0%,0%);stroke-opacity:1;stroke-miterlimit:10;" d="M 176.001563 639.998438 L 336.001562 639.998438 " transform="matrix(1,0,0,-1,-175.4,768.6)"/>
</g>
<path style=" stroke:none;fill-rule:evenodd;fill:rgb(0%,0%,0%);fill-opacity:1;" d="M 160.601562 128.601562 L 153.601562 126.269531 L 153.601562 130.929688 Z M 160.601562 128.601562 "/>
<g clip-path="url(#clip3)" clip-rule="nonzero">
<path style="fill:none;stroke-width:1.2;stroke-linecap:butt;stroke-linejoin:round;stroke:rgb(0%,0%,0%);stroke-opacity:1;stroke-miterlimit:10;" d="M 336.001562 639.998438 L 329.001562 642.330469 L 329.001562 637.670313 Z M 336.001562 639.998438 " transform="matrix(1,0,0,-1,-175.4,768.6)"/>
</g>
<path style=" stroke:none;fill-rule:evenodd;fill:rgb(0%,0%,0%);fill-opacity:1;" d="M 34.398438 112.601562 C 34.398438 111.605469 33.59375 110.800781 32.601562 110.800781 C 31.605469 110.800781 30.800781 111.605469 30.800781 112.601562 C 30.800781 113.59375 31.605469 114.398438 32.601562 114.398438 C 33.59375 114.398438 34.398438 113.59375 34.398438 112.601562 "/>
<path style=" stroke:none;fill-rule:evenodd;fill:rgb(0%,0%,0%);fill-opacity:1;" d="M 34.398438 112.601562 C 34.398438 111.605469 33.59375 110.800781 32.601562 110.800781 C 31.605469 110.800781 30.800781 111.605469 30.800781 112.601562 C 30.800781 113.59375 31.605469 114.398438 32.601562 114.398438 C 33.59375 114.398438 34.398438 113.59375 34.398438 112.601562 "/>
<path style=" stroke:none;fill-rule:evenodd;fill:rgb(0%,0%,0%);fill-opacity:1;" d="M 50.398438 112.601562 C 50.398438 111.605469 49.59375 110.800781 48.601562 110.800781 C 47.605469 110.800781 46.800781 111.605469 46.800781 112.601562 C 46.800781 113.59375 47.605469 114.398438 48.601562 114.398438 C 49.59375 114.398438 50.398438 113.59375 50.398438 112.601562 "/>
<path style=" stroke:none;fill-rule:evenodd;fill:rgb(0%,0%,0%);fill-opacity:1;" d="M 34.398438 96.601562 C 34.398438 95.605469 33.59375 94.800781 32.601562 94.800781 C 31.605469 94.800781 30.800781 95.605469 30.800781 96.601562 C 30.800781 97.59375 31.605469 98.398438 32.601562 98.398438 C 33.59375 98.398438 34.398438 97.59375 34.398438 96.601562 "/>
<path style=" stroke:none;fill-rule:evenodd;fill:rgb(0%,0%,0%);fill-opacity:1;" d="M 50.398438 96.601562 C 50.398438 95.605469 49.59375 94.800781 48.601562 94.800781 C 47.605469 94.800781 46.800781 95.605469 46.800781 96.601562 C 46.800781 97.59375 47.605469 98.398438 48.601562 98.398438 C 49.59375 98.398438 50.398438 97.59375 50.398438 96.601562 "/>
<path style=" stroke:none;fill-rule:evenodd;fill:rgb(0%,0%,0%);fill-opacity:1;" d="M 66.398438 112.601562 C 66.398438 111.605469 65.59375 110.800781 64.601562 110.800781 C 63.605469 110.800781 62.800781 111.605469 62.800781 112.601562 C 62.800781 113.59375 63.605469 114.398438 64.601562 114.398438 C 65.59375 114.398438 66.398438 113.59375 66.398438 112.601562 "/>
<path style=" stroke:none;fill-rule:evenodd;fill:rgb(0%,0%,0%);fill-opacity:1;" d="M 82.398438 112.601562 C 82.398438 111.605469 81.59375 110.800781 80.601562 110.800781 C 79.605469 110.800781 78.800781 111.605469 78.800781 112.601562 C 78.800781 113.59375 79.605469 114.398438 80.601562 114.398438 C 81.59375 114.398438 82.398438 113.59375 82.398438 112.601562 "/>
<path style=" stroke:none;fill-rule:evenodd;fill:rgb(0%,0%,0%);fill-opacity:1;" d="M 82.398438 96.601562 C 82.398438 95.605469 81.59375 94.800781 80.601562 94.800781 C 79.605469 94.800781 78.800781 95.605469 78.800781 96.601562 C 78.800781 97.59375 79.605469 98.398438 80.601562 98.398438 C 81.59375 98.398438 82.398438 97.59375 82.398438 96.601562 "/>
<path style=" stroke:none;fill-rule:evenodd;fill:rgb(0%,0%,0%);fill-opacity:1;" d="M 66.398438 96.601562 C 66.398438 95.605469 65.59375 94.800781 64.601562 94.800781 C 63.605469 94.800781 62.800781 95.605469 62.800781 96.601562 C 62.800781 97.59375 63.605469 98.398438 64.601562 98.398438 C 65.59375 98.398438 66.398438 97.59375 66.398438 96.601562 "/>
<path style=" stroke:none;fill-rule:evenodd;fill:rgb(0%,0%,0%);fill-opacity:1;" d="M 66.398438 80.601562 C 66.398438 79.605469 65.59375 78.800781 64.601562 78.800781 C 63.605469 78.800781 62.800781 79.605469 62.800781 80.601562 C 62.800781 81.59375 63.605469 82.398438 64.601562 82.398438 C 65.59375 82.398438 66.398438 81.59375 66.398438 80.601562 "/>
<path style=" stroke:none;fill-rule:evenodd;fill:rgb(0%,0%,0%);fill-opacity:1;" d="M 50.398438 80.601562 C 50.398438 79.605469 49.59375 78.800781 48.601562 78.800781 C 47.605469 78.800781 46.800781 79.605469 46.800781 80.601562 C 46.800781 81.59375 47.605469 82.398438 48.601562 82.398438 C 49.59375 82.398438 50.398438 81.59375 50.398438 80.601562 "/>
<path style=" stroke:none;fill-rule:evenodd;fill:rgb(0%,0%,0%);fill-opacity:1;" d="M 34.398438 80.601562 C 34.398438 79.605469 33.59375 78.800781 32.601562 78.800781 C 31.605469 78.800781 30.800781 79.605469 30.800781 80.601562 C 30.800781 81.59375 31.605469 82.398438 32.601562 82.398438 C 33.59375 82.398438 34.398438 81.59375 34.398438 80.601562 "/>
<path style=" stroke:none;fill-rule:evenodd;fill:rgb(0%,0%,0%);fill-opacity:1;" d="M 34.398438 64.601562 C 34.398438 63.605469 33.59375 62.800781 32.601562 62.800781 C 31.605469 62.800781 30.800781 63.605469 30.800781 64.601562 C 30.800781 65.59375 31.605469 66.398438 32.601562 66.398438 C 33.59375 66.398438 34.398438 65.59375 34.398438 64.601562 "/>
<path style=" stroke:none;fill-rule:evenodd;fill:rgb(0%,0%,0%);fill-opacity:1;" d="M 34.398438 48.601562 C 34.398438 47.605469 33.59375 46.800781 32.601562 46.800781 C 31.605469 46.800781 30.800781 47.605469 30.800781 48.601562 C 30.800781 49.59375 31.605469 50.398438 32.601562 50.398438 C 33.59375 50.398438 34.398438 49.59375 34.398438 48.601562 "/>
<path style=" stroke:none;fill-rule:evenodd;fill:rgb(0%,0%,0%);fill-opacity:1;" d="M 50.398438 48.601562 C 50.398438 47.605469 49.59375 46.800781 48.601562 46.800781 C 47.605469 46.800781 46.800781 47.605469 46.800781 48.601562 C 46.800781 49.59375 47.605469 50.398438 48.601562 50.398438 C 49.59375 50.398438 50.398438 49.59375 50.398438 48.601562 "/>
<path style=" stroke:none;fill-rule:evenodd;fill:rgb(0%,0%,0%);fill-opacity:1;" d="M 50.398438 64.601562 C 50.398438 63.605469 49.59375 62.800781 48.601562 62.800781 C 47.605469 62.800781 46.800781 63.605469 46.800781 64.601562 C 46.800781 65.59375 47.605469 66.398438 48.601562 66.398438 C 49.59375 66.398438 50.398438 65.59375 50.398438 64.601562 "/>
<path style=" stroke:none;fill-rule:evenodd;fill:rgb(0%,0%,0%);fill-opacity:1;" d="M 66.398438 64.601562 C 66.398438 63.605469 65.59375 62.800781 64.601562 62.800781 C 63.605469 62.800781 62.800781 63.605469 62.800781 64.601562 C 62.800781 65.59375 63.605469 66.398438 64.601562 66.398438 C 65.59375 66.398438 66.398438 65.59375 66.398438 64.601562 "/>
<path style=" stroke:none;fill-rule:evenodd;fill:rgb(0%,0%,0%);fill-opacity:1;" d="M 82.398438 80.601562 C 82.398438 79.605469 81.59375 78.800781 80.601562 78.800781 C 79.605469 78.800781 78.800781 79.605469 78.800781 80.601562 C 78.800781 81.59375 79.605469 82.398438 80.601562 82.398438 C 81.59375 82.398438 82.398438 81.59375 82.398438 80.601562 "/>
<path style=" stroke:none;fill-rule:evenodd;fill:rgb(0%,0%,0%);fill-opacity:1;" d="M 98.398438 96.601562 C 98.398438 95.605469 97.59375 94.800781 96.601562 94.800781 C 95.605469 94.800781 94.800781 95.605469 94.800781 96.601562 C 94.800781 97.59375 95.605469 98.398438 96.601562 98.398438 C 97.59375 98.398438 98.398438 97.59375 98.398438 96.601562 "/>
<path style=" stroke:none;fill-rule:evenodd;fill:rgb(0%,0%,0%);fill-opacity:1;" d="M 98.398438 112.601562 C 98.398438 111.605469 97.59375 110.800781 96.601562 110.800781 C 95.605469 110.800781 94.800781 111.605469 94.800781 112.601562 C 94.800781 113.59375 95.605469 114.398438 96.601562 114.398438 C 97.59375 114.398438 98.398438 113.59375 98.398438 112.601562 "/>
<path style=" stroke:none;fill-rule:evenodd;fill:rgb(0%,0%,0%);fill-opacity:1;" d="M 114.398438 112.601562 C 114.398438 111.605469 113.59375 110.800781 112.601562 110.800781 C 111.605469 110.800781 110.800781 111.605469 110.800781 112.601562 C 110.800781 113.59375 111.605469 114.398438 112.601562 114.398438 C 113.59375 114.398438 114.398438 113.59375 114.398438 112.601562 "/>
<path style=" stroke:none;fill-rule:evenodd;fill:rgb(0%,0%,0%);fill-opacity:1;" d="M 34.398438 32.601562 C 34.398438 31.605469 33.59375 30.800781 32.601562 30.800781 C 31.605469 30.800781 30.800781 31.605469 30.800781 32.601562 C 30.800781 33.59375 31.605469 34.398438 32.601562 34.398438 C 33.59375 34.398438 34.398438 33.59375 34.398438 32.601562 "/>
<path style="fill:none;stroke-width:1.2;stroke-linecap:butt;stroke-linejoin:round;stroke:rgb(17.999268%,54.499817%,34.098816%);stroke-opacity:1;stroke-miterlimit:10;" d="M 208.001563 655.998438 L 224.001563 655.998438 L 208.001563 671.998438 L 208.001563 687.998438 L 240.001563 655.998438 L 256.001562 655.998438 L 208.001563 703.998438 L 208.001563 719.998438 L 272.001562 655.998438 L 288.001562 655.998438 L 208.001563 735.998438 L 208.001563 751.998438 " transform="matrix(1,0,0,-1,-175.4,768.6)"/>
<path style="fill-rule:evenodd;fill:rgb(17.999268%,54.499817%,34.098816%);fill-opacity:1;stroke-width:1.2;stroke-linecap:butt;stroke-linejoin:round;stroke:rgb(17.999268%,54.499817%,34.098816%);stroke-opacity:1;stroke-miterlimit:10;" d="M 208.001563 751.998438 L 205.669531 744.998438 L 210.329688 744.998438 Z M 208.001563 751.998438 " transform="matrix(1,0,0,-1,-175.4,768.6)"/>
</g>
</svg>
